X:1
T:Poohsticks at the Causeway
C:T. S. Macdonald
M:6/8
L:1/8
K:D
g | f2 d dfd | ecA ABc | dcd AFD | EFE E2 g | f2 d dfd | ecA ABc | def edc | dAF D2 g |
    f2 d dfd | ecA ABc | dcd AFD | EFE E2 g | f2 g afa | bge dBc | def edc | dAF D2 ||
|:E | F2 A dAF | EGB egb | a2 f dAF | EFE E2 G | F2 A dAF | EGB e2 c | def edc | dAF D2 :|]

